X: 8855
T: Culfadda, The
R: reel
M: 4/4
K: Fmajor
A|BD'C'A B~G3|GDB,D G2GA|BDGB ADFA|D'G'G'F' G'2A'G'|
F'~D'3 G'G'D'C'|A~B3 A2BC'|D'BC'A B2AC|DBBA G3:|
ABC'|D'C'BA B2AC'|DBBA GBAG|F2EG F~C3|FGAC' D'C'C'A|
GABC' D'~C'3|D'C'BA BAGF|D~F3 CFAC'|D'G'F'A' G'4:|
ABC'|D'~G'3 D'~G'3|D'G'G'F' D'2C'A|C'~F'3 C'F'C'F'|G'F'C'A FABC'|
~D'3B ~C'3A|~B3G AGFG|G,A,B,C DGFG|AD'CA G4:|

